X:25
T: Chunji zhaicha chaye xin
N: C1525
O: China, Guangxi, Yulin
S: II, 520(2)]
R: Wuge, Caicha, Zhicha diao]
M: 2/4
L: 1/16
K: D
D2E2F2FE | D2EFD2E2 | F2E2F2A2 | E2F2EFED | B,2B,2B,DEF | DEB,2D4
A3BA2D2 | E8 | A3BA2D2 | E8
E3FA4 | F2A2FAFE | D3EFEFA | E8
B,2F2EFB,2 | D8 | D2B,DEFED | B,2B,2B,DA,2 | B,8

